Adwaita++/actions/22/category-edit.svg

<svg height="22" width="22" xmlns="http://www.w3.org/2000/svg">
  <g fill="#444">
    <path d="m4.1425781 3s-1.1425781.0004507-1.1425781 1.1542969v12.6914061s-.000279 1.154297 1.1425781 1.154297h9.8574219v-.75l3.617188-3.619141.707031-.707031.519531-.523437.002-.002c.04753-.04754.101127-.08572.154297-.125v-.273391-5.7382812c-.000047-1.1538463-1.142625-1.2617188-1.142625-1.2617188h-5.714844l-2.2851561-2z" transform="matrix(.99999999679 0 0 .99999999769 .0000002125 .00000043385)"/>
    <path d="m19.805711 13c-.09101 0-.182726.03479-.253395.105469l-.697201.703125 1.335814 1.335937.703061-.697265c.141347-.141352.141347-.364012 0-.505372l-.836348-.836425c-.07067-.07068-.160917-.105469-.251931-.105469zm-1.480821 1.338867-3.32489 3.325196v1.335937h1.335814l3.324891-3.325195z"/>
  </g>
</svg>

<svg xmlns="http://www.w3.org/2000/svg" width="22" height="22" version="1.1">
 <defs>
  <style id="current-color-scheme" type="text/css">
   .ColorScheme-Text { color:#444444; } .ColorScheme-Highlight { color:#4285f4; }
  </style>
 </defs>
 <g transform="matrix(1.1428571,0,0,1.1538462,1.8571432,0.692307)">
  <path style="fill:currentColor" class="ColorScheme-Text" transform="matrix(0.87500003,0,0,0.86666663,-1.6250004,-0.59999938)" d="M 4.1425781,3 C 4.1425781,3 3,3.0004507 3,4.1542969 V 16.845703 C 3,16.845703 2.999721,18 4.1425781,18 H 14 v -0.75 l 3.617188,-3.619141 0.707031,-0.707031 0.519531,-0.523437 0.002,-0.002 c 0.04753,-0.04754 0.101127,-0.08572 0.154297,-0.125 V 12 6.2617188 C 19,5.1078725 17.857422,5 17.857422,5 H 12.142578 L 9.8574219,3 Z"/>
 </g>
 <path style="fill:currentColor" class="ColorScheme-Text" d="m 19.805711,13 c -0.09101,0 -0.182726,0.03479 -0.253395,0.105469 l -0.697201,0.703125 1.335814,1.335937 0.703061,-0.697265 c 0.141347,-0.141352 0.141347,-0.364012 0,-0.505372 L 20.057642,13.105469 C 19.986972,13.034789 19.896725,13 19.805711,13 Z M 18.32489,14.338867 15,17.664063 V 19 h 1.335814 l 3.324891,-3.325195 z"/>
</svg>
